X:14835
T:San Antonio y los paxarinos
R:Romance
C:Tradicional
S:Msica Tradicional Asturiana, (C) Tello & Tito. Asturies, 2001.
S:http://pagina.de/MusTradAst <telloytito@asturies.org>
A:Asturies
Z:DyC en Teberga
M:2/4
L:1/8
Q:1/4=120
K:Bb
FF
|: FB BB|BB AB|c_d cB|c2 c2|c2 BA|B2 AG|F2 {G}A2|A2 GF|
|G2 FE|D2 D2|FF FA|G2 G2|EE EG|F2 F2|DD DF|E2 E2|
|CC CE|D2 D2-|[1 D2 FF :|[2 D2 z2|
